assets/svg/icon-ui-hl7-signup-gear-dark-gray.svg

<?xml version="1.0" encoding="UTF-8" standalone="no"?>
<svg width="32px" height="32px" viewBox="0 0 32 32" version="1.1" xmlns="http://www.w3.org/2000/svg" xmlns:xlink="http://www.w3.org/1999/xlink">
    <!-- Generator: Sketch 3.8.3 (29802) - http://www.bohemiancoding.com/sketch -->
    <title>dark gray/icon-ui-hl7-signup-gear-dark-gray</title>
    <desc>Created with Sketch.</desc>
    <defs></defs>
    <g id="gray" stroke="none" stroke-width="1" fill="none" fill-rule="evenodd">
        <g id="icons,-utility-(gray)" transform="translate(-386.000000, -765.000000)" fill="#242F36">
            <g id="dark-gray/icon-ui-hl7-signup-gear-dark-gray" transform="translate(386.000000, 765.000000)">
                <g id="Fill-10">
                    <g id="PaaS">
                        <g id="hl7">
                            <path d="M16.3979109,22.884 C12.4724251,22.884 9.27923897,19.6903334 9.27923897,15.7653334 C9.27923897,11.8393334 12.4724251,8.646 16.3979109,8.646 C20.3227299,8.646 23.5165827,11.8393334 23.5165827,15.7653334 C23.5165827,19.6903334 20.3227299,22.884 16.3979109,22.884 L16.3979109,22.884 L16.3979109,22.884 Z M29.5189728,12.998 C28.9676648,12.9596666 28.4233566,12.491 28.2553643,11.965 C28.0523737,11.3276666 27.799052,10.7123334 27.5003991,10.1246666 C27.249744,9.63233337 27.3050747,8.91433337 27.6670581,8.497 L29.2429855,6.68 C29.4909741,6.43233337 29.447976,6.073 29.1999874,5.82566663 L26.4637802,3.08866663 C26.2157917,2.84133337 25.8571415,2.79833337 25.6091529,3.04633337 L23.8225687,4.59633337 C23.4052545,4.95833337 22.6912874,5.00733337 22.2029766,4.74966663 C21.5983378,4.43033337 20.9647003,4.15933337 20.3067307,3.94166663 C19.7824215,3.76833337 19.3137765,3.22033337 19.2741117,2.66933337 L19.1094526,0.446 C19.1094526,0.0956666286 18.8254656,0 18.4751485,0 L14.6056601,0 C14.2546763,0 13.9703561,0.0956666286 13.9703561,0.446 L13.8106968,2.634 C13.7710319,3.18466663 13.300387,3.70666663 12.7717447,3.867 C12.0701103,4.08 11.3948081,4.34566663 10.7518377,4.673 C10.2595271,4.92366663 9.54156023,4.86533337 9.12424606,4.50366663 L7.43032423,3.03266663 C7.18300229,2.78533337 6.8083528,2.81166663 6.56036434,3.059 L3.82415703,5.795 C3.57616846,6.04333337 3.54883646,6.41733337 3.79682503,6.665 L5.23842526,8.327 C5.6000752,8.74433337 5.64907291,9.45833337 5.39008491,9.94633337 C5.0507672,10.5873334 4.76578034,11.2613334 4.541124,11.9623334 C4.37246514,12.4883334 3.82815691,12.9586666 3.27751554,12.999 L0.850627429,13.1623334 C0.500643543,13.1623334 0,13.4466666 0,13.7963334 L0,17.667 C0,18.017 0.500643543,18.3013334 0.850627429,18.3013334 L3.16752069,18.4636666 C3.71816194,18.5036666 4.30780149,18.9746666 4.47379383,19.5016666 C4.70078331,20.226 5.01643543,20.9216666 5.36575269,21.5823334 C5.62440743,22.0706666 5.58674251,22.784 5.2247592,23.2013334 L3.80582457,24.8446666 C3.55816937,25.0923334 3.60350057,25.4513334 3.85148914,25.6993334 L6.58969623,28.4356666 C6.8376848,28.6833334 7.1970016,28.726 7.44499017,28.4786666 L9.11891303,27.027 C9.53622709,26.665 10.2535274,26.6106666 10.7458381,26.8616666 C11.390475,27.1903334 12.0674438,27.4643334 12.7704114,27.678 C13.2990537,27.838 13.7696986,28.3763334 13.8080303,28.9273334 L13.9703561,31.2856666 C13.9703561,31.636 14.2546763,32 14.6056601,32 L18.4751485,32 C18.8254656,32 19.1094526,31.636 19.1094526,31.2856666 L19.2767782,28.8916666 C19.3151097,28.3403334 19.7830881,27.7766666 20.3077306,27.603 C20.9673669,27.385 21.602671,27.106 22.2083097,26.7856666 C22.6962872,26.5273334 23.4105877,26.572 23.8279017,26.934 L25.5941536,28.465 C25.8421422,28.713 26.1851264,28.6536666 26.433115,28.4053334 L29.1693222,25.6686666 C29.4176441,25.4213334 29.4753081,25.0773334 29.2279862,24.8296666 L27.6677248,23.0313334 C27.3057414,22.614 27.2510773,21.8963334 27.5010657,21.404 C27.8093849,20.796 28.0700395,20.1593334 28.2763633,19.4993334 C28.441689,18.9723334 28.9833307,18.503 29.5339721,18.4646666 L31.6892061,18.3013334 C32.0395232,18.3013334 31.9985251,18.017 31.9985251,17.667 L31.9985251,13.7963334 C31.9985251,13.4466666 32.0395232,13.1623334 31.6892061,13.1623334 L31.6892061,13.1623334 L29.5189728,12.998 L29.5189728,12.998 L29.5189728,12.998 Z" id="Fill-10"></path>
                        </g>
                    </g>
                </g>
            </g>
        </g>
    </g>
</svg>

<svg width="32" height="32" viewBox="0 0 32 32" xmlns="http://www.w3.org/2000/svg"><title>dark gray/icon-ui-hl7-signup-gear-dark-gray</title><path d="M16.398 22.884c-3.926 0-7.119-3.194-7.119-7.119 0-3.926 3.193-7.119 7.119-7.119 3.925 0 7.119 3.193 7.119 7.12 0 3.924-3.194 7.118-7.12 7.118zm13.121-9.886c-.551-.038-1.096-.507-1.264-1.033a12.306 12.306 0 0 0-.755-1.84c-.25-.493-.195-1.21.167-1.628l1.576-1.817c.248-.248.205-.607-.043-.854l-2.736-2.737c-.248-.248-.607-.29-.855-.043l-1.786 1.55c-.418.362-1.132.411-1.62.154-.605-.32-1.238-.59-1.896-.808-.525-.174-.993-.722-1.033-1.273L19.11.446c0-.35-.284-.446-.634-.446h-3.87c-.35 0-.635.096-.635.446l-.16 2.188c-.039.55-.51 1.073-1.038 1.233-.702.213-1.377.479-2.02.806-.492.25-1.21.192-1.628-.17L7.43 3.034c-.247-.248-.622-.221-.87.026L3.824 5.795c-.248.248-.275.622-.027.87l1.441 1.662c.362.417.411 1.131.152 1.62-.34.64-.624 1.314-.849 2.015-.169.526-.713.997-1.263 1.037l-2.427.163c-.35 0-.851.285-.851.634v3.871c0 .35.5.634.85.634l2.318.163c.55.04 1.14.51 1.306 1.038.227.724.542 1.42.892 2.08.258.489.22 1.202-.141 1.62l-1.42 1.643c-.247.247-.201.606.046.854l2.739 2.737c.248.247.607.29.855.043l1.674-1.452c.417-.362 1.135-.416 1.627-.165.644.328 1.321.602 2.024.816.53.16 1 .698 1.038 1.25l.162 2.358c0 .35.285.714.636.714h3.87c.35 0 .633-.364.633-.714l.168-2.394c.038-.552.506-1.115 1.03-1.289.66-.218 1.296-.497 1.901-.817.488-.259 1.203-.214 1.62.148l1.766 1.531c.248.248.591.189.84-.06l2.735-2.736c.249-.248.306-.592.059-.84l-1.56-1.798c-.362-.417-.417-1.135-.167-1.627.308-.608.569-1.245.775-1.905.166-.527.707-.996 1.258-1.034l2.155-.164c.35 0 .31-.284.31-.634v-3.87c0-.35.04-.635-.31-.635l-2.17-.164z" fill="#242F36" fill-rule="evenodd"/></svg>
